X:1
T:Cupid's Frolic -- Hornpipe
R:hornpipe
B:Cole's 1000 Fiddle Tunes
M:2/4
L:1/16
K:A
uE2|Ac"4"ec EGBG|Ac"4"ec f4|vagbg afed|cBAG BGE2|
vAc"4"ec EGBG|Ac"4"ec f4|vagbg afed|c2A2A2:|
|:vcd|"4"ecdB cABG|"4"AGFE "4"DC.B,2|vA,CDE BcdB|c"4"ecA .B2vcd|
"4"ecce fddf|agaf ecce|dfed cBAG|A2A2A2:|
